X:1
T:Jerusalem, Arise
T:Jerusalem, Arise
T:From the Chauvenet Collection
T:Joseph Proud (1745-1826)
T:Public Domain Courtesy of the Cyber Hymnal™
C:From the Chauvenet Collection
Z:Public Domain
Z:Courtesy of the Cyber Hymnal™
%%score ( 1 2 ) 3
L:1/8
Q:1/4=115
M:4/4
K:Bb
V:1 treble 
V:2 treble 
V:3 bass 
V:1
 [DB]2 | [FB]2 [FB]2 A2 B2 | [Fc]6 [Fd]2 | [Ec]2 [DB]2 [Fe]2 [Fd]2 | [Fc]6 [Fc]2 | %5
w: 1.~Jer-|u- sa- lem, a-|rise, The|Heaven- ly glor- y|view; The|
w: 2.~Now|end- ed is the|reign Of|err- or’s gloom- y|night: The|
w: 3.~Now|liv- ing wa- ters|flow To|cheer the hum- ble|soul: From|
w: 4.~Je-|sus shall rule a-|lone, The|world shall hear His|Word; By|
 [=Ec]2 [Fc]2 [Dd]2 [Ec]2 | [DB]2 [FA]2 [EG]2 [FA]2 | [FB]2 [Ee]2 [Fd]2 c2 | [DB]6 |] %9
w: light is come, lift|up thine eyes, All|things are now made|new.|
w: Sun of heaven ap-|pears a- gain And|beams cel- es- tial|light.|
w: sea to sea the|riv- ers go, And|bless wher- e’er they|roll.|
w: one blest name shall|He be known, The|un- i- ver- sal|Lord.|
V:2
 x2 | x4 (FE) (D=E) | x8 | x8 | x8 | x8 | x8 | x6 (FE) | x6 |] %9
V:3
 [B,,B,]2 | [D,B,]2 [B,,D]2 [F,C]2 [G,B,]2 | [F,A,]6 [B,,B,]2 | [F,A,]2 [G,B,]2 [A,C]2 B,2 | %4
 [F,A,]6 [F,A,]2 | [G,B,]2 [A,C]2 B,2 [^F,A,]2 | [G,B,]2 [D,B,]2 [E,B,]2 [E,C]2 | %7
 [D,B,]2 [G,B,]2 [F,B,]2 [F,A,]2 | [B,,B,]6 |] %9

